X:1
T:Boatman
C:Anonymous
M:4/4
L:1/8
K:D
|:"G"B2 B2 "D"A4|"G"B2 B2 "D"A4|"G"B2 B2 "D"A2 F2|F2 "A"E2 "D"D4:|
w:1~Boat-man dance, Boat-man sing, Boat-man do most eve-ry-thing.
w:When the Boatman gets a-shore,  Spends his money and works for more.
w:2~Well~I~never seen~a pretty~girl in my life, Unless she's been a Boat-man's wife,
w:When the Boatman blows his horn, Look out men, your daugh-ters gone!
|"D"F4 E2 F2| A8 | F4 E2 D2|"Bm"B,6 "D"A2
w:Dance Boat-man dance, Dance Boat-man dance! Stay
|"G"B2 B2 "D"A2 AA|"G"B2 B2 "D"A2 A2|"G"B2 BB "A"c2 cc|"D"d2 c2 d4
w:out all night 'til the broad day-light, go home with the girls in the mor--ning!
|"G"d4 d3 d|e2 d2 d4|"D"AAAA AAAA|B2 A2 A4
w:Hey ho! The Boat-man row, Sail-ing down the ri-ver on the O-hi-o.
|"G"d4 d3 d|e2 d2 d4|"D"AAAA AAFF|"A"F2 E2 "D"D4|
w:Hey ho! The Boat-man row, Sail-ing down the ri-ver on the O-hi-o.

